!!!SOCIAL_FUNCTION:	deer dance songs
!!!PDT:	1932
!!!OTL: No_66_The_Spider_Makes_a_Road.krn
!!!REG: Southwest
!!!LANG: Non-Tone
!!!LING_GROUP: Yuman-Cochimi
**kern	**kern
*staff2	*staff1
=1-	=1-
*clefF4	*clefF4
*k[b-e-]	*k[b-e-]
*M2/4	*M2/4
2r	4r
.	8.r
.	16G\
=2	=2
4GG/	16G\LK
.	8.G\J
4GG/	4G\
=3	=3
4GG/	2B-\
4r	.
=4||	=4||
*M3/4	*M3/4
4GG/	8.A\L
.	16A\Jk
4GG/	16A\LK
.	8.A\J
4GG/	4A\
=5||	=5||
*M2/4	*M2/4
4GG/	2B-\
4r	.
=6||	=6||
*M3/4	*M3/4
4GG/	8.G\L
.	16G\Jk
4GG/	16A\LK
.	8.A\J
4GG/	4G\
=7	=7
4GG/	2A\
4r	.
4r	8r
.	8A\
=8||	=8||
*M2/4	*M2/4
4GG/	8B-\L
.	8A\J
4GG/	4G\
=9	=9
4GG/	4A\
4GG/	8B-\
.	8r
=10||	=10||
*M3/4	*M3/4
4r	8.G\L
.	16G\Jk
4GG/	8G\L
.	8G\J
4GG/	8G\L
.	8E-\J
=11||	=11||
*M2/4	*M2/4
4GG/	2G\
4GG/	.
=12||	=12||
*M3/4	*M3/4
4r	8.E-\L
.	16E-\Jk
4GG/	16E-\LK
.	8.E-\J
4GG/	8E-\
.	8r
=13||	=13||
*M2/4	*M2/4
4GG/	2G\
4GG/	.
=14	=14
4GG/	4G\
4GG/	8.A\L
.	16G\Jk
=15||	=15||
*M3/4	*M3/4
4r	8.G\L
.	16G\Jk
4GG/	8.G\L
.	16G\Jk
4GG/	4E-\
=16	=16
4GG/	4G\
4GG/	8.r
.	16E-\
4r	16E-\LK
.	8.E-\J
=17||	=17||
*M2/4	*M2/4
4GG/	2G\
4r	.
=18||	=18||
*M3/4	*M3/4
4GG/	8.E-\L
.	16E-\Jk
4GG/	16E-\LK
.	8.E-\J
4r	8E-\
.	8r
=19||	=19||
*M2/4	*M2/4
4GG/	2G\
4GG/	.
=20	=20
4GG/	4G\
4GG/	8.A\L
.	16G\Jk
=21||	=21||
*M3/4	*M3/4
4r	8.G\L
.	16G\Jk
4GG/	8.G\L
.	16G\Jk
4GG/	16G\LK
.	8.E-\J
=22	=22
4GG/	2G\
4GG/	.
4r	4r
=23||	=23||
*M2/4	*M2/4
4GG/	16G\LK
.	8.B-\J
4GG/	4G\
=24	=24
4GG/	16A\LK
.	[8.B-\J
4r	4B-\]
=25||	=25||
*M3/4	*M3/4
4GG/	8.A\L
.	16A\Jk
4GG/	16A\LK
.	8.B-\J
4GG/	4A\
=26||	=26||
*M2/4	*M2/4
4GG/	2B-\
4r	.
=27||	=27||
*M3/4	*M3/4
4GG/	8.G\L
.	16G\Jk
4GG/	16A\LK
.	8.A\J
4GG/	4G\
=28	=28
4GG/	2A\
4r	.
4GG/	8r
.	8A\
=29||	=29||
*M2/4	*M2/4
4GG/	8B-\L
.	8A\J
4GG/	4G\
=30	=30
4GG/	4A\
4r	8B-\
.	8r
=31||	=31||
*M3/4	*M3/4
4GG/	8.G\L
.	16G\Jk
4GG/	16G\LK
.	8.G\J
4GG/	16G\LK
.	8.E-\J
=32||	=32||
*M2/4	*M2/4
4GG/	2G\
4r	.
=33||	=33||
*M3/4	*M3/4
4GG/	8.E-\L
.	16E-\Jk
4GG/	16E-\LK
.	8.E-\J
4r	8E-\
.	8r
=34||	=34||
*M2/4	*M2/4
4GG/	4G\
4r	4r
=35	=35
4GG/	4G\
4GG/	8.A\L
.	16G\Jk
=36||	=36||
*M3/4	*M3/4
4GG/	8.G\L
.	16G\Jk
4GG/	16G\LK
.	8.G\J
4GG/	4G\
=37	=37
4GG/	2G\
4r	.
4GG/	8r
.	8G\
=38||	=38||
*M2/4	*M2/4
2r	16A\LK
.	8.B-\J
.	4G\
=39||	=39||
*M3/4	*M3/4
4GG/	8.A\L
.	16A\Jk
4GG/	16A\LK
.	8.B-\J
4GG/	4A\
=40||	=40||
*M2/4	*M2/4
4GG/	2B-\
4r	.
=41||	=41||
*M3/4	*M3/4
4GG/	8.G\L
.	16G\Jk
4GG/	16A\LK
.	8.A\J
4GG/	4G\
=42	=42
4GG/	2A\
4r	.
4r	8r
.	8A\
=43||	=43||
*M2/4	*M2/4
4GG/	8B-\L
.	8A\J
4GG/	4G\
=44	=44
4GG/	4A\
4r	8B-\
.	8r
=45||	=45||
*M3/4	*M3/4
4GG/	8.G\L
.	16G\Jk
4GG/	16G\LK
.	8.G\J
4GG/	16G\LK
.	8.E-\J
=46||	=46||
*M2/4	*M2/4
4GG/	2G\
4r	.
=47||	=47||
*M3/4	*M3/4
4GG/	8.E-\L
.	16E-\Jk
4GG/	16E-\LK
.	8.E-\J
4r	8E-\
.	8r
=48||	=48||
*M2/4	*M2/4
4GG/	4G\
4r	4r
=49	=49
!!pagebreak:default
4GG/	4G\
4GG/	8.A\L
.	16G\Jk
=50||	=50||
*M3/4	*M3/4
4GG/	8.G\L
.	16G\Jk
4GG/	16G\LK
.	8.G\J
4GG/	4G\
=51	=51
4GG/	2G\
4GG/	.
4r	4r
==	==
*-	*-
